32x32/actions/mail-mark-notjunk.svg

<svg viewBox="0 0 32 32" xmlns="http://www.w3.org/2000/svg"><path d="m2 5v22h15v-1h-14v-.889l.43-.427 9.355-9.143 3.215 3.143 12.977-12.684h.023v8h1v-9zm1 1h.023l9.047 8.842-9.07 8.865zm1.453 0h23.094l-11.547 11.285zm25.184 12-7.637 7.56-2.91-2.88-.727.72 2.908 2.88.729.72 1.09-1.08 7.273-7.2z" fill="#555e70"/></svg>

<svg xmlns="http://www.w3.org/2000/svg" viewBox="0 0 32 32"><path style="fill:currentColor;fill-opacity:1;stroke:none;color:#555e70" d="M2 5v22h15v-1H3v-.889l.43-.427 9.355-9.143L16 18.684 28.977 6H29v8h1V5H2zm1 1h.023l9.047 8.842L3 23.707V6zm1.453 0h23.094L16 17.285 4.453 6zm25.184 12L22 25.56l-2.91-2.88-.727.72 2.908 2.88L22 27l1.09-1.08 7.273-7.2-.726-.72z"/></svg>
